X:113
T:Flowers of Red Hill
Z: id:dc-reel-105
M:C
L:1/8
K:A Dorian
eAA2 gAfA|eAA2 edBd|eAA2 e2af|gedB GABd:|!
eaa2 baa2|eaag egdg|eaa2 baa2|edef gedg|!
eaa2 baa2|eaaf g3a|b3g aged|eaag edBd|]!

